src/qt/dogecash/res/img/ic-nav-settings.svg

<?xml version="1.0" encoding="UTF-8"?>
<svg width="24px" height="45px" viewBox="0 0 24 45" version="1.1" xmlns="http://www.w3.org/2000/svg" xmlns:xlink="http://www.w3.org/1999/xlink">
    <title>ic-nav-settings</title>
    <g id="Page-1" stroke="none" stroke-width="1" fill="none" fill-rule="evenodd">
        <g id="ic-nav-settings">
            <rect id="Rectangle-Copy-9" x="0" y="0" width="24" height="45"></rect>
            <g transform="translate(1.000000, 14.000000)" fill="#FFFFFF" fill-rule="nonzero">
                <g id="Group_8816">
                    <path d="M13.9,22 L8.1,22 L7.787,18.864 L7.72,18.837 L5.281,20.837 L1.167,16.725 L3.167,14.285 L3.139,14.219 L0,13.9 L0,8.1 L3.135,7.786 L3.163,7.72 L1.163,5.28 L5.276,1.168 L7.715,3.168 L7.782,3.141 L8.1,0 L13.9,0 L14.213,3.136 L14.28,3.163 L16.719,1.163 L20.828,5.27 L18.828,7.71 L18.856,7.776 L22,8.1 L22,13.9 L18.865,14.214 L18.837,14.28 L20.837,16.72 L16.728,20.827 L14.289,18.827 L14.222,18.854 L13.9,22 Z M9.9,20 L12.1,20 L12.361,17.39 L12.987,17.19 C13.3287124,17.08012 13.660554,16.9416296 13.979,16.776 L14.562,16.476 L16.595,18.14 L18.143,16.591 L16.479,14.556 L16.779,13.972 C16.9446037,13.6542337 17.0830952,13.3230586 17.193,12.982 L17.393,12.357 L20,12.1 L20,9.9 L17.39,9.639 L17.19,9.014 C17.0800952,8.67294144 16.9416037,8.3417663 16.776,8.024 L16.476,7.44 L18.138,5.41 L16.59,3.861 L14.557,5.525 L13.974,5.225 C13.655552,5.05937466 13.3237108,4.92088448 12.982,4.811 L12.356,4.611 L12.1,2 L9.9,2 L9.639,4.61 L9.013,4.81 C8.67128919,4.91988448 8.33944799,5.05837466 8.021,5.224 L7.438,5.524 L5.41,3.861 L3.862,5.41 L5.526,7.445 L5.226,8.029 C5.06039627,8.3467663 4.92190485,8.67794144 4.812,9.019 L4.612,9.644 L2,9.9 L2,12.1 L4.61,12.361 L4.81,12.986 C4.91990485,13.3270586 5.05839627,13.6582337 5.224,13.976 L5.524,14.56 L3.862,16.59 L5.41,18.139 L7.443,16.475 L8.026,16.775 C8.34444598,16.9406296 8.67628755,17.07912 9.018,17.189 L9.644,17.389 L9.9,20 Z" id="Path_18871"></path>
                </g>
                <g id="Group_8817" transform="translate(7.000000, 7.000000)">
                    <path d="M4,8 C1.790861,8 0,6.209139 0,4 C0,1.790861 1.790861,0 4,0 C6.209139,0 8,1.790861 8,4 C8,5.06086596 7.57857264,6.07828161 6.82842712,6.82842712 C6.07828161,7.57857264 5.06086596,8 4,8 Z M4,2 C2.8954305,2 2,2.8954305 2,4 C2,5.1045695 2.8954305,6 4,6 C5.1045695,6 6,5.1045695 6,4 C6,2.8954305 5.1045695,2 4,2 Z" id="Path_18872"></path>
                </g>
            </g>
        </g>
    </g>
</svg>

<svg id="ic-nav-settings" xmlns="http://www.w3.org/2000/svg" width="24" height="45" viewBox="0 0 24 45">
  <rect id="Rectangle-Copy-9" width="24" height="45" fill="none"/>
  <g id="Group_428" data-name="Group 428" transform="translate(1 14)">
    <g id="Group_8816">
      <path id="Path_18871" d="M13.9,22H8.1l-.313-3.136-.067-.027-2.439,2L1.167,16.725l2-2.44-.028-.066L0,13.9V8.1l3.135-.314.028-.066-2-2.44L5.276,1.168l2.439,2,.067-.027L8.1,0h5.8l.313,3.136.067.027,2.439-2L20.828,5.27l-2,2.44.028.066L22,8.1v5.8l-3.135.314-.028.066,2,2.44-4.109,4.107-2.439-2-.067.027Zm-4-2h2.2l.261-2.61.626-.2a6.387,6.387,0,0,0,.992-.414l.583-.3,2.033,1.664,1.548-1.549-1.664-2.035.3-.584a6.369,6.369,0,0,0,.414-.99l.2-.625L20,12.1V9.9l-2.61-.261-.2-.625a6.369,6.369,0,0,0-.414-.99l-.3-.584,1.662-2.03L16.59,3.861,14.557,5.525l-.583-.3a6.388,6.388,0,0,0-.992-.414l-.626-.2L12.1,2H9.9L9.639,4.61l-.626.2a6.388,6.388,0,0,0-.992.414l-.583.3L5.41,3.861,3.862,5.41,5.526,7.445l-.3.584a6.369,6.369,0,0,0-.414.99l-.2.625L2,9.9v2.2l2.61.261.2.625a6.369,6.369,0,0,0,.414.99l.3.584L3.862,16.59,5.41,18.139l2.033-1.664.583.3a6.387,6.387,0,0,0,.992.414l.626.2Z" fill="#9ba2af"/>
    </g>
    <g id="Group_8817" transform="translate(7 7)">
      <path id="Path_18872" d="M4,8A4,4,0,1,1,6.828,6.828,4,4,0,0,1,4,8ZM4,2A2,2,0,1,0,6,4,2,2,0,0,0,4,2Z" fill="#9ba2af"/>
    </g>
  </g>
</svg>
